material/.icons/material/comma-box.svg

<svg xmlns="http://www.w3.org/2000/svg" viewBox="0 0 24 24"><path d="M5 3h14a2 2 0 012 2v14a2 2 0 01-2 2H5a2 2 0 01-2-2V5a2 2 0 012-2m10 10V7H9v6h3l-2 4h3l2-4z"/></svg>

<?xml version="1.0" encoding="UTF-8"?><!DOCTYPE svg PUBLIC "-//W3C//DTD SVG 1.1//EN" "http://www.w3.org/Graphics/SVG/1.1/DTD/svg11.dtd"><svg xmlns="http://www.w3.org/2000/svg" xmlns:xlink="http://www.w3.org/1999/xlink" version="1.1" id="mdi-comma-box" width="24" height="24" viewBox="0 0 24 24"><path d="M5,3H19A2,2 0 0,1 21,5V19A2,2 0 0,1 19,21H5A2,2 0 0,1 3,19V5A2,2 0 0,1 5,3M15,13V7H9V13H12L10,17H13L15,13Z" /></svg>
